X: 317
%
U:~=!turn!
T: Lady Mary Stopford
C:M. Macdonald
O:Scotland
B:Keith Norman MacDonald : "The Skye collection of the best reels & strathspeys extant" : 1887
Z:Ralph Palmer
R:Reel
M:C|
L:1/8
K:D
B | AFdF TA2 (FA) | BGAF GEEG | FADF GBEd | ceAc dDD :|
g | fdad Tf2 (df) | gfed ceAg | fdad Tf2 (df) | gbag fddg |
fdad Tf2 (df) | gfed ceA=c | B2 GB ^ce Ac | {/c}dfeg Tfdd |]


